!!!OTL: ALL ENK NACHBARSLEUTEN HAB I ANZUDEUTEN
!!!ARE: Europa, Mitteleuropa, Deutschland, Ober - Bayern
!!!SCT: E1554
!!!YEM: Copyright 1995, estate of Helmut Schaffrath.
**kern
*ICvox
*Ivox
*M3/4
*k[b-e-a-]
*E-:
{8G
8B-
=1
8e-
8G
8B-
8A-
12G
12B-
12e-
=2
8d
8F
8A-
8G}
{8F
8d
=3
8f
8F
8A-
8G
8F
8d
=4
8e-
8g
4B-}
{8G
8B-
=5
8e-
8G
8B-
8A-
8G
8e-
=6
8d
8F
8A-
8G}
{8F
8d
=7
8f
8F
8A-
8G
8F
8d
=8
2e-}
{8B-
8B-
=9
8B-
8d
8f
8a-
8g
8f
=10
8e-
8G
4.B-}
{8e-
=11
8d
8F
4A-
8B-
8d
=12
8e-
8G
4B-}
{8B-
8B-
=13
8B-
8d
8f
8a-
8g
8f
=14
8e-
8G
4.B-}
{8e-
=15
8d
8F
4A-
8B-
8d
=16
8e-
8G
4B-}
{8B-
8B-
=17
4B-
8a-
8g
8a-
8g
=18
8g
8B-
4.e-}
{8g
=19
8f
8B-
4.d
8f
=20
8e-
8B-
8e-
8d}
{8e-
8g
=21
4b-
8a-
8g
8a-
8g
=22
8g
8B-
4.e-}
{8g
=23
4f
8B-
8f
8a-
8d
=24
2e-}
==
!!!AGN: Staende -, Bauern - Lied; Jodler
!!!ONB: ESAC (Essen Associative Code) Database: ERK3
!!!AMT: simple triple
!!!AIN: vox
!!!EED: Helmut Schaffrath
!!!EEV: 1.0
*-
